X:1
T:Forget Me Not
C:Larry Redican
R:reel
M:4/4
L:1/8
Z:Philippe Varlet
K:C
c2ec AGED|CA,~A,2 G,A,CD|EGcd ecdc|Addc dged|
c2ec AGED|CA,~A,2 G,A,CD|EGce dBcA|GEDF ECCG:|
|:c2gc acgc|fcec dcAc|Gc~c2 Gcea|gece d2eg|
agea gede|cd (3edc dcAG|EGce dBcA|GEDF ECCG:|
